icons/whatsapp-line.svg

<svg xmlns="http://www.w3.org/2000/svg" width="24" height="24" fill="none"><g clip-path="url(#a)"><g><path fill="#121212" d="M7.25301 18.494L7.97701 18.917C9.19795 19.6291 10.5866 20.0029 12 20C13.5823 20 15.129 19.5308 16.4446 18.6518C17.7602 17.7727 18.7855 16.5233 19.3911 15.0615C19.9966 13.5997 20.155 11.9911 19.8463 10.4393C19.5376 8.88743 18.7757 7.46197 17.6569 6.34315C16.538 5.22433 15.1126 4.4624 13.5607 4.15372C12.0089 3.84504 10.4004 4.00346 8.93855 4.60896C7.47674 5.21447 6.22731 6.23984 5.34826 7.55544C4.46921 8.87103 4.00001 10.4177 4.00001 12C4.00001 13.436 4.37701 14.813 5.08401 16.024L5.50601 16.748L4.85301 19.149L7.25301 18.494ZM2.00401 22L3.35601 17.032C2.46515 15.5049 1.99711 13.768 2.00001 12C2.00001 6.477 6.47701 2 12 2C17.523 2 22 6.477 22 12C22 17.523 17.523 22 12 22C10.2328 22.0029 8.49667 21.5352 6.97001 20.645L2.00401 22ZM8.39101 7.308C8.52501 7.298 8.66001 7.298 8.79401 7.304C8.84801 7.308 8.90201 7.314 8.95601 7.32C9.11501 7.338 9.29001 7.435 9.34901 7.569C9.64701 8.245 9.93701 8.926 10.217 9.609C10.279 9.761 10.242 9.956 10.124 10.146C10.0429 10.2745 9.95507 10.3986 9.86101 10.518C9.74801 10.663 9.50501 10.929 9.50501 10.929C9.50501 10.929 9.40601 11.047 9.44401 11.194C9.45801 11.25 9.50401 11.331 9.54601 11.399L9.60501 11.494C9.86101 11.921 10.205 12.354 10.625 12.762C10.745 12.878 10.862 12.997 10.988 13.108C11.456 13.521 11.986 13.858 12.558 14.108L12.563 14.11C12.648 14.147 12.691 14.167 12.815 14.22C12.877 14.246 12.941 14.269 13.006 14.286C13.0732 14.3031 13.1439 14.2999 13.2093 14.2767C13.2746 14.2536 13.3316 14.2116 13.373 14.156C14.097 13.279 14.163 13.222 14.169 13.222V13.224C14.2193 13.1771 14.2791 13.1415 14.3443 13.1196C14.4095 13.0977 14.4786 13.09 14.547 13.097C14.607 13.101 14.668 13.112 14.724 13.137C15.255 13.38 16.124 13.759 16.124 13.759L16.706 14.02C16.804 14.067 16.893 14.178 16.896 14.285C16.9 14.352 16.906 14.46 16.883 14.658C16.851 14.917 16.773 15.228 16.695 15.391C16.6416 15.5022 16.5707 15.6042 16.485 15.693C16.3841 15.7989 16.2736 15.8954 16.155 15.981C16.114 16.0119 16.0723 16.0419 16.03 16.071C15.9056 16.1499 15.7778 16.2233 15.647 16.291C15.3895 16.4278 15.1052 16.5063 14.814 16.521C14.629 16.531 14.444 16.545 14.258 16.535C14.25 16.535 13.69 16.448 13.69 16.448C12.2683 16.074 10.9534 15.3735 9.85001 14.402C9.62401 14.203 9.41501 13.989 9.20101 13.776C8.31101 12.891 7.63901 11.936 7.23101 11.034C7.02218 10.5913 6.90938 10.1094 6.90001 9.62C6.89589 9.01285 7.09436 8.42167 7.46401 7.94C7.53701 7.846 7.60601 7.748 7.72501 7.635C7.85201 7.515 7.93201 7.451 8.01901 7.407C8.13469 7.34903 8.26088 7.31502 8.39001 7.307L8.39101 7.308Z"/></g></g><defs><clipPath id="a"><rect width="24" height="24" fill="white"/></clipPath></defs></svg>

<svg width="24" height="24" fill="none" xmlns="http://www.w3.org/2000/svg"><g clip-path="url(#a)"><path d="m7.253 18.494.724.423A7.953 7.953 0 0 0 12 20a8 8 0 1 0-6.916-3.976l.422.724-.653 2.401 2.4-.655ZM2.004 22l1.352-4.968A9.954 9.954 0 0 1 2 12C2 6.477 6.477 2 12 2s10 4.477 10 10-4.477 10-10 10a9.953 9.953 0 0 1-5.03-1.355L2.004 22ZM8.391 7.308c.134-.01.269-.01.403-.004.054.004.108.01.162.016.159.018.334.115.393.249.298.676.588 1.357.868 2.04.062.152.025.347-.093.537a4.372 4.372 0 0 1-.263.372c-.113.145-.356.411-.356.411s-.099.118-.061.265c.014.056.06.137.102.205l.059.095c.256.427.6.86 1.02 1.268.12.116.237.235.363.346.468.413.998.75 1.57 1l.005.002c.085.037.128.057.252.11.062.026.126.049.191.066a.35.35 0 0 0 .367-.13c.724-.877.79-.934.796-.934v.002a.482.482 0 0 1 .378-.127c.06.004.121.015.177.04.531.243 1.4.622 1.4.622l.582.261c.098.047.187.158.19.265.004.067.01.175-.013.373-.032.259-.11.57-.188.733a1.155 1.155 0 0 1-.21.302 2.38 2.38 0 0 1-.33.288l-.125.09a5.044 5.044 0 0 1-.383.22 1.989 1.989 0 0 1-.833.23c-.185.01-.37.024-.556.014-.008 0-.568-.087-.568-.087a9.448 9.448 0 0 1-3.84-2.046c-.226-.199-.435-.413-.649-.626-.89-.885-1.562-1.84-1.97-2.742A3.47 3.47 0 0 1 6.9 9.62a2.729 2.729 0 0 1 .564-1.68c.073-.094.142-.192.261-.305.127-.12.207-.184.294-.228a.961.961 0 0 1 .371-.1l.001.001Z" /></g><defs><clipPath id="a"><path fill="#fff" d="M0 0h24v24H0z"/></clipPath></defs></svg>
